src/assets/filled/BitcoinCard.svg

<svg width="24" height="24" viewBox="0 0 24 24"  xmlns="http://www.w3.org/2000/svg">
<path d="M17.38 10.75C17.38 10.53 17.14 10.25 16.88 10.25H14.94H14.5V11.25H16.88C17.15 11.25 17.38 11.03 17.38 10.75Z" />
<path d="M17.32 12.75H16.87H14.5V13.75H14.94H17.32C17.69 13.75 18 13.52 18 13.25C18 12.98 17.69 12.75 17.32 12.75Z" />
<path d="M17.85 3.40039H6.15C3.86 3.40039 2 5.25039 2 7.54039V16.4604C2 18.7504 3.86 20.6004 6.15 20.6004H17.85C20.14 20.6004 22 18.7504 22 16.4604V7.54039C22 5.25039 20.14 3.40039 17.85 3.40039ZM9.25 12.7504H5.25C4.84 12.7504 4.5 12.4104 4.5 12.0004C4.5 11.5904 4.84 11.2504 5.25 11.2504H9.25C9.66 11.2504 10 11.5904 10 12.0004C10 12.4104 9.66 12.7504 9.25 12.7504ZM17.32 15.2504H16.26V15.7504C16.26 16.1604 15.92 16.5004 15.51 16.5004C15.1 16.5004 14.76 16.1604 14.76 15.7504V15.2504H13.75H12.75C12.34 15.2504 12 14.9104 12 14.5004C12 14.0904 12.34 13.7504 12.75 13.7504H13V12.0004V10.2504H12.75C12.34 10.2504 12 9.91039 12 9.50039C12 9.09039 12.34 8.75039 12.75 8.75039H13.75H14.76V8.25039C14.76 7.84039 15.1 7.50039 15.51 7.50039C15.92 7.50039 16.26 7.84039 16.26 8.25039V8.75039H16.87C17.94 8.75039 18.87 9.68039 18.87 10.7504C18.87 11.0804 18.78 11.3904 18.64 11.6704C19.16 12.0404 19.5 12.6104 19.5 13.2504C19.5 14.3504 18.52 15.2504 17.32 15.2504Z" />
</svg>

<?xml version="1.0" encoding="UTF-8"?>
<svg width="24" height="24" viewBox="0 0 24 24" xmlns="http://www.w3.org/2000/svg">
 <path d="m17.38 10.75c0-0.22-0.24-0.5-0.5-0.5h-2.38v1h2.38c0.27 0 0.5-0.22 0.5-0.5z"/>
 <path d="m17.32 12.75h-2.82v1h2.82c0.37 0 0.68-0.23 0.68-0.5s-0.31-0.5-0.68-0.5z"/>
 <path d="m17.85 3.4004h-11.7c-2.29 0-4.15 1.85-4.15 4.14v8.92c0 2.29 1.86 4.14 4.15 4.14h11.7c2.29 0 4.15-1.85 4.15-4.14v-8.92c0-2.29-1.86-4.14-4.15-4.14zm-8.6 9.35h-4c-0.41 0-0.75-0.34-0.75-0.75s0.34-0.75 0.75-0.75h4c0.41 0 0.75 0.34 0.75 0.75s-0.34 0.75-0.75 0.75zm8.07 2.5h-1.06v0.5c0 0.41-0.34 0.75-0.75 0.75s-0.75-0.34-0.75-0.75v-0.5h-2.01c-0.41 0-0.75-0.34-0.75-0.75s0.34-0.75 0.75-0.75h0.25v-3.5h-0.25c-0.41 0-0.75-0.34001-0.75-0.75001s0.34-0.75 0.75-0.75h2.01v-0.5c0-0.41 0.34-0.75 0.75-0.75s0.75 0.34 0.75 0.75v0.5h0.61c1.07 0 2 0.93 2 2 0 0.33-0.09 0.64-0.23 0.92 0.52 0.37 0.86 0.94 0.86 1.58 0 1.1-0.98 2-2.18 2z"/>
</svg>
